X:1
T:Live a Life of Sunshine
T:Live a Life of Sunshine
T:Alfred T. Goodsell
T:J. Harry Crossley, 1897
T:Public Domain Courtesy of the Cyber Hymnal™
T:Public Domain Courtesy of the Cyber Hymnal™
C:Alfred T. Goodsell
Z:Public Domain
Z:Courtesy of the Cyber Hymnal™
%%score ( 1 2 ) ( 3 4 )
L:1/8
Q:1/4=90
M:4/4
K:Ab
V:1 treble 
V:2 treble 
V:3 bass 
V:4 bass 
V:1
 [Ac]>[Ae] [Ac]>[EB] [EA]2 E2 | [FA]>[FA] [EG]>[DF] [CE]4 | [Gd]>[Ge] [Gd]>[GB] [Ac]2 [EA]2 | %3
w: 1.~All our life is joy- ous,|all the way is bright,|For the Sav- ior’s pre- sence|
w: 2.~Storm- y clouds may ga- ther,|wild the tem- pest blow,|But with- in, my soul with|
w: 3.~When the sun- shine en- ters,|dark- ness flees a- way;|Doubts and fears are scat- tered|
 [=DA]>[DA] [DF]>[Dc] [EB]4 | [Ec]>[Ae] [Ac]>[EB] [EA]2 E2 | [FA]>[FA] [EG]>[DF] [CE]4 | %6
w: ban- ish- es the night;|Sin has no a- bid- ing,|sor- row takes its flight,|
w: light is all a- glow;|Hap- pi- ness and peace thro’|ev- ery heart will flow,|
w: by its cheer- ing ray;|All a- long, the path grows|bright- er ev- ery day,|
 [DF]>[EG] [FA]>[FB] [Ec]2 [Ec]2 | [DB]4 [CA]4 ||"^Refrain" [CE]4 [DF]2 [DA]2 | %9
w: When we live a life of|sun- shine.||
w: If we life a life of|sun- shine.|Glad- ness and|
w: When we life a life of|sun- shine.||
 [Cc]4- [Cc]>[CE] [DF]>[CE] | [DG]6 [Ee]>[Ed] | [Ec]>[Fd] [Ec]>[EA] (B2 E2) | [CE]4 [DF]2 [DA]2 | %13
w: ||||
w: joy * fill all my|soul, When I|hear the Mas- ter say: *|“My peace I|
w: ||||
 [Cc]4- [Cc]>[CE] [DF]>[CE] | [DG]2 [Ed]2 [Ec]3 [DB] | [CA]6 z2 |] %16
w: |||
w: give,” * That makes it|sun- shine all the|way.|
w: |||
V:2
 x6 E2 | x8 | x8 | x8 | x6 E2 | x8 | x8 | x8 || x8 | x8 | x8 | x4 D4 | x8 | x8 | x8 | x8 |] %16
V:3
 [A,E]>[A,C] [A,E]>[A,D] [A,C]2 [A,C]2 | [D,D]>[D,D] [D,A,]>[D,A,] [A,,A,]4 | %2
w: ~ ~ ~ ~ ~ ~|~ ~ ~ ~ ~|
 [E,B,]>[E,B,] [E,B,]>[E,E] [A,E]2 [A,,C]2 | [B,,B,]>[B,,B,] [B,,B,]>[B,,A,] [E,G,]4 | %4
w: ~ ~ ~ ~ ~ ~|~ ~ ~ ~ ~|
 A,>[A,C] [A,E]>[A,D] [A,C]2 [A,C]2 | [D,D]>[D,D] [D,A,]>[D,A,] [A,,A,]4 | %6
w: ~ ~ ~ ~ ~ ~|~ ~ ~ ~ ~|
 [D,A,]>[D,A,] [D,D]>[D,D] [E,A,]2 [E,A,]2 | [E,G,]4 [A,,A,]4 || [A,,A,]4 [D,A,]2 [D,F,]2 | %9
w: ~ ~ ~ ~ ~ ~|~ ~|~ ~ ~|
 [A,,E,]2 [A,,A,]2 [A,,A,]>[A,,A,] [A,,A,]>[A,,A,] | [E,B,]2 [E,B,]2 [E,B,]2 [E,G,]>[G,B,] | %11
w: ~ and joy ~ ~ ~|~ ~ my soul ~|
 A,>A, [C,A,]>[C,A,] [E,G,]4 | A,4 [D,A,]2 [D,F,]2 | %13
w: ~ ~ ~ ~ ~|~ ~ ~|
 [A,,E,]2 [A,,A,]2 [A,,A,]>[A,,A,] [A,,A,]>[A,,A,] | [E,B,]2 [E,G,]2 [E,A,]3 E, | [A,,E,]6 z2 |] %16
w: ~ I give, * * *|||
V:4
 x8 | x8 | x8 | x8 | A,3/2 x13/2 | x8 | x8 | x8 || x8 | x8 | x8 | A,>A, x6 | A,4 x4 | x8 | x7 E, | %15
 x8 |] %16

